X:1
T:Nawe und lustige weltliche deutsche Liedlein
T:Mit Lieb bin ich umfangen
T:Antonio Scandello
T:Mit Lieb bin ich umfangen
T:No. 15 in Neue und lustige weltliche deutsche Liedlein
T:CPDL   —   Creative Commons Attribution Non Commercial 3.0
T:CPDL   —   Creative Commons Attribution Non Commercial 3.0
T:CPDL   —   Creative Commons Attribution Non Commercial 3.0
C:Antonio Scandello
Z:CPDL   —   Creative Commons Attribution Non Commercial 3.0
%%score [ ( 1 2 ) 3 4 ]
L:1/8
M:4/2
K:F
V:1 treble nm="Diskant\nAlt"
V:2 treble 
V:3 treble-8 nm="Tenor"
V:4 bass nm="Bass"
V:1
 A8 G4 B4 | A2 A2 G4 ^F6 G2- | G2 A4 A2 A8 | ^F4 z2 G4 G4 G2 | (^F2 G4) F2 G4 G4 | A4 z2 B4 B4 B2 | %6
w: 1.  Mit Lieb bin|ich um- fan- gen, bin|_ ich um- fan-|gen, Herz- al- ler-|liebs- * te mein; nach|dir, nach dir steht|
w: 2.  Wie soll ich|von dir las- sen, ich|_ von dir las-|sen? es kost' mir|mei- * nen Leib; dar-|zu, dar- zu zwingt|
 c2 c2 c4 c4 z2 B2- | B2 A4 A4 A2 G4 | G4 z2 A2 A2 G2 ^F2 G2 | A2 B4 A2 B2 B4 c2- | %10
w: mein Ver- lan- gen, wenn|_ es nur könn- te|sein. Könnt ich dein Gunst er-|wer- * * ben, käm ich|
w: mich ohn Ma- ßen, dass|_ ich jetzt von dir|scheid. Dir hab ich mich er-|ge- * * ben, in rech-|
 c2 c2 =B2 B2 c4 c4 | c4 =B4 c2 A4 G2 | A8 z2 F4 G2- | G2 A2 B4 G4 F4 | E4 F4 (A4 G2) B2- | %15
w: _ aus gro- ßer Not; viel|lie- ber wollt ich ster-|ben, viel lie-|* ber wollt ich ster-|ben und wün- * schen|
w: * ter Ste- tig- keit; die-|weil ich hab das Le-|ben, die- weil|_ ich hab das Le-|ben, Herz- lieb * ver-|
 B2 A4 G2 A8 | z2 A4 A4 A2 A2 A2 | A16 |] %18
w: _ mir den Tod.|und wün- schen mir den|Tod.|
w: * giß nicht mein,|Herz- lieb ver- giß nicht|mein!|
V:2
 F8 E4 F4 | F2 F2 E4 D6 D2- | D2 F4 F2 E8 | D4 x2 D4 E4 C2 | D4 D4 B,4 D4 | F4 x2 F4 F4 G2 | %6
w: ||||liebs- te * *||
w: ||||mei- nen * *||
 E2 F2 G4 A4 x2 G2- | G2 F4 E4 F2 D4 | E4 x2 F2 F2 D2 D2 E2 | F8 F2 F4 A2- | A2 A2 G2 G2 E4 G4 | %11
w: |||||
w: |||||
 A4 G4 F2 E2 D4 | E8 x2 D4 D2- | D2 F2 F4 E4 D4 | ^C4 D4 (=C2 D4) E2- | E2 F4 D2 E8 | %16
w: * * wollt ich ster-|ben, * *||||
w: * * hab das Le-|ben, * *||||
 x2 F4 E4 E2 F2 F2 | E16 |] %18
w: ||
w: ||
V:3
 c8 c4 d4 | c2 c2 c4 A6 =B2- | B2 c4 d4 ^c=B c4 | d4 z2 B4 c4 G2 | A4 A4 G4 B4 | c4 z2 d4 d4 d2 | %6
w: 1.  Mit Lieb bin|ich um- fan- gen, bin|_ ich um- fan- * *|gen, Herz- al- ler-|liebs- te mein; nach|dir, nach dir steht|
w: 2.  Wie soll ich|von dir las- sen, ich|_ von dir las- * *|sen? es kost' mir|mei- nen Leib; dar-|zu, dar- zu zwingt|
 c2 f4 e2 f4 z2 d2- | d2 d4 c4 c4 =B2 | c4 z2 c2 c2 B2 A2 B2 | c2 d2 c4 B2 d4 e2- | %10
w: mein Ver- lan- gen, wenn|_ es nur könn- te|sein. Könnt ich dein Gunst er-|wer- * * ben, käm ich|
w: mich ohn Ma- ßen, dass|_ ich jetzt von dir|scheid. Dir hab ich mich er-|ge- * * ben, in rech-|
 e2 f2 d2 d2 c4 e4 | f4 d4 c2 c2 d4- | d4 ^c4 z2 A4 B2- | B2 c2 d4 c4 A4 | A4 A4 A4 B4 | %15
w: _ aus gro- ßer Not; viel|lie- ber wollt ich ster-|* ben, viel lie-|* ber wollt ich ster-|ben und wün- schen|
w: * ter Ste- tig- keit; die-|weil ich hab das Le-|* ben, die- weil|_ ich hab das Le-|ben, Herz- lieb ver-|
 c4 d8 ^c4 | z2 d4 ^c4 c2 d2 d2 | ^c16 |] %18
w: mir den Tod,|und wün- schen mir den|Tod.|
w: giß nicht mein,|Herz- lieb ver- giß nicht|mein!|
V:4
 F,8 C,4 B,,4 | F,2 F,2 C,4 D,6 G,2- | G,2 F,4 D,2 A,8 | D,4 z2 G,4 C,4 _E,2 | D,4 D,4 G,,4 G,4 | %5
w: ||* * um- fan-|gen, * * *||
w: ||* * dir las-|sen? * * *||
 F,4 z2 B,,4 B,4 G,2 | A,2 F,2 C4 F,4 z2 G,2- | G,2 D,4 A,4 F,2 G,4 | C,4 z2 F,2 F,2 G,2 D,2 G,2 | %9
w: ||||
w: ||||
 F,8 B,,2 B,4 A,2- | A,2 F,2 G,2 G,2 C,4 C,4 | F,4 G,4 A,2 A,2 B,4 | A,8 z2 D,4 G,2- | %13
w: ||* * * * ster-|ben, * *|
w: ||* * * * Le-|ben, * *|
 G,2 F,2 B,,4 C,4 D,4 | A,,4 D,4 F,4 G,4 | A,4 B,4 A,8 | z2 D,4 A,4 A,,2 D,2 D,2 | A,,16 |] %18
w: ||mir den Tod,|||
w: ||giß nicht mein,|||

